X:1
T:Title
%%score 1 { ( 2 3 6 ) | ( 4 5 ) }
L:1/8
Q:1/4=100
M:6/8
K:Eb
V:1 treble nm="Choir Aahs"
V:2 treble nm="Grand Piano"
V:3 treble 
V:6 treble 
V:4 bass 
V:5 bass 
V:1
 G3 _G3 | GBc B3 | e2 e d2 c | B6 | A3 G3 | ABd c3 | F2 G A2 B | G6 | G3 _G3 | GBc B3 | e2 G A2 B | %11
w: Samule~W.~Beazley *|||||||||||
 c6 | e3 =B3 | e3 B3 | BcB G2 F | E6 | z6 | z6 | z6 | z6 | z6 | z6 | z6 | z6 | z6 | z6 | z6 | z6 | %28
w: |||||||||||||||||
 z6 | z6 | z6 | z6 |] %32
w: ||||
V:2
 G3 _G3 | [B,EG]Bc B-[GB-][GB] | .e3 .d3 | B6 | A3 G3 | z3 c3 | .F3 .A3 | G6 | G3 _G3 | %9
 [B,EG]Bc B-[GB-][GB] | .e3 .A3 | c6 | z =AA z [_GA][GA] | z BB z GG | %14
 [B,EB][CEc][B,EB] [B,EG]2 [A,B,DF] | E3 z3 | [EGB]3 [C_G=A]3 | [B,GB][Ge][Gc] [GB]GE | A3 G3 | %19
 A6 | A3 G3 | Adc [DB][DA][DF] | [EG]2 [Ge] .[Fd]3 | G3 z A=A | [EGB]3 [C_G=A]3 | %25
 [B,GB][Ge][Gc] [GB]GE | [EA]3 [EB]3 | [Ec]6 | [Ee]3 [E=B]3 | [Ee]3 [EB]3 | %30
 [DB][Dc][DB] [DG]2 [DF] | E6 |] %32
V:3
 z EE z EE | z3 .[EG]3 | z A[EAe] z A[EAc] | z E[B,DA] [B,EG]GG | z DD z _DD | [B,DA]Bd z AA | %6
 z DG z DB | [B,E]EE EEE | z EE z EE | z3 .[EG]3 | z BG z E[B,EGB] | z AA AAA | [Ee]3 [=B,=B]3 | %13
 [Ee]3 [B,B]3 | x6 | [E,G,B,][G,B,][G,B,] [E,G,B,E]3 | x6 | x6 | x6 | x6 | x6 | x6 | x6 | z3 G3 | %24
 x6 | x6 | x6 | x6 | x6 | x6 | x6 | x6 |] %32
V:4
 z B,B, z [=A,C][A,C] | z[K:treble] [EG][EG][K:bass] z EE | z E[C,C] z E[A,,A,] | %3
 z B,[F,,F,] z [B,E][B,E] | z B,B, z B,B, | z[K:treble] [B,D][DA][K:bass] z DD | %6
 z B,[B,D] z B,[B,D] | z B,B, B,B,B, | z B,B, z [=A,C][A,C] | z[K:treble] [EG][EG][K:bass] z EE | %10
 z[K:treble] [EG][B,E][K:bass] z A,[B,,,B,,] | z [CE][CE] [CE][CE][CE] | %12
 z[K:treble] _GG[K:bass] z EE | z[K:treble] GG[K:bass] z EE | G,,A,,G,, B,,C,D, | E,,B,,G,, E,,3 | %16
 E,3 E,3 | E,[E,B,][E,B,] [E,B,][E,B,E][E,G,] | [F,B,D]3 [E,B,_D]3 | [F,B,D]6 | %20
 [F,B,D]3 [E,B,_D]3 | [F,B,D][F,A,D][F,A,D] [B,,A,][B,,B,][B,,B,] | [E,B,]3 z2[K:treble] c | %23
 z EF EF_G | E,3 E,3 | E,[E,B,][E,B,] [E,B,][E,B,E][_D,G,] | [C,A,]3 [B,,G,]3 | [A,,A,]6 | %28
 [=B,,_G,]3 [B,,G,]3 | [B,,G,]3 [B,,G,]3 | [B,,F,][B,,A,][B,,F,] [B,,B,]2 [B,,A,] | [E,G,]6 |] %32
V:5
 [E,,E,]3 [E,,E,]3 | [E,,E,]3[K:treble][K:bass] [E,,E,]3 | .[C,C]3 .[B,,B,]3 | .[G,,G,]3 [E,,E,]3 | %4
 [F,,F,]3 [=E,,=E,]3 | [F,,F,]3[K:treble][K:bass] [B,,,B,,]3 | [D,,D,]3 [B,,,B,,]3 | [E,,E,]6 | %8
 [E,,E,]3 [E,,E,]3 | [E,,E,]3[K:treble][K:bass] [E,,E,]3 | [_D,,_D,]3[K:treble][K:bass] .[C,,C,]3 | %11
 A,,6 | =B,,3[K:treble][K:bass] B,,3 | B,,3[K:treble][K:bass] G,,3 | x6 | x6 | x6 | x6 | x6 | x6 | %20
 x6 | x6 | z3 [E,A,]3[K:treble] | E,6 | x6 | x6 | x6 | x6 | x6 | x6 | x6 | x6 |] %32
V:6
 x6 | x6 | x6 | x6 | x6 | x6 | x6 | x6 | x6 | x6 | x6 | x6 | x6 | x6 | x6 | x6 | x6 | x6 | x6 | %19
 x6 | x6 | x6 | x6 | [B,B]6 | x6 | x6 | x6 | x6 | x6 | x6 | x6 | x6 |] %32

